icons/solid/pencil.svg

<svg width="24" height="24" viewBox="0 0 24 24" fill="none" xmlns="http://www.w3.org/2000/svg">
<path d="M21.7312 2.26884C20.706 1.24372 19.044 1.24372 18.0189 2.26884L16.8617 3.426L20.574 7.13831L21.7312 5.98116C22.7563 4.95603 22.7563 3.29397 21.7312 2.26884Z" fill="#0F172A"/>
<path d="M19.5134 8.19897L15.801 4.48666L3.65021 16.6375C3.03342 17.2543 2.58003 18.015 2.33101 18.851L1.53123 21.5359C1.45261 21.7998 1.52496 22.0856 1.71969 22.2803C1.91442 22.4751 2.2002 22.5474 2.46413 22.4688L5.14902 21.669C5.98499 21.42 6.74574 20.9666 7.36253 20.3498L19.5134 8.19897Z" fill="#0F172A"/>
</svg>

<svg xmlns="http://www.w3.org/2000/svg" viewBox="0 0 24 24" fill="currentColor" aria-hidden="true" data-slot="icon">
  <path d="M21.731 2.269a2.625 2.625 0 0 0-3.712 0l-1.157 1.157 3.712 3.712 1.157-1.157a2.625 2.625 0 0 0 0-3.712ZM19.513 8.199l-3.712-3.712-12.15 12.15a5.25 5.25 0 0 0-1.32 2.214l-.8 2.685a.75.75 0 0 0 .933.933l2.685-.8a5.25 5.25 0 0 0 2.214-1.32L19.513 8.2Z"/>
</svg>
